X: 2
T: The Frieze Breeches
R: jig
M: 6/8
L: 1/8
K: Dmaj
FED EFG|AdB cAG|~A3 BAG|FAF GED|
FED EFG|AdB cAG|~F3 GEA|1DDD D3:|2DDD D2A||
d2e fed|efd cAG|~A3 BAG|FAF GED|
d2e fed|efd cAG|~F3 GEA|DDD D3:|
DDD =c3|AdB =cAG|ABc ded|ded cAF|
DDD =c3|AdB =cAG|~F3 GEA|1DDD D3:|2DDD D2A||
d2e fdd|Add fdd|c2d eAA|fed ecA|
d2e fdd|Add fdd|faf gfe|1dfe d2A:|2dfe d2e||
fed ecA|ded cAG|~A3 BAG|FAF GED|
[1fed ecA|ded cAG|~F3 GEA|DDD D3:|
[2fdf ~g3|afd cAG|~F3 GEA|DDD D3:|


Tune 34	Setting 12435

